ePapirus/16x16/actions/depth16to8.svg

<svg xmlns="http://www.w3.org/2000/svg" width="16" height="16" version="1.1" viewBox="0 0 16 16">
 <defs>
  <style id="current-color-scheme" type="text/css">
   .ColorScheme-Text { color:#6e6e6e; } .ColorScheme-Highlight { color:#4285f4; }
  </style>
 </defs>
 <path style="fill:currentColor" class="ColorScheme-Text" d="m 1,1 v 2 h 1 v 8 H 4 V 1 H 2 Z M 8,1 C 6.3431458,1 5,2.3431458 5,4 v 4 c 0,1.6568542 1.3431458,3 3,3 1.6568542,0 3,-1.3431458 3,-3 C 11,6.3431458 9.6568542,5 8,5 7.6591004,5.0013511 7.3209248,5.060796 7,5.1757812 V 4 C 7,3.4477153 7.4477153,3 8,3 8.5522847,3 9,3.4477153 9,4 h 2 C 11,2.3431458 9.6568542,1 8,1 Z M 8,7 C 8.5522847,7 9,7.4477153 9,8 9,8.5522847 8.5522847,9 8,9 7.4477153,9 7,8.5522847 7,8 7,7.4477153 7.4477153,7 8,7 Z m 6,1 c -1.104569,0 -2,0.8954305 -2,2 6.48e-4,0.574405 0.248235,1.120803 0.679688,1.5 C 12.248234,11.879197 12.000648,12.425595 12,13 c 0,1.10457 0.895431,2 2,2 1.10457,0 2,-0.89543 2,-2 -6.48e-4,-0.574405 -0.248235,-1.120803 -0.679688,-1.5 C 15.751765,11.120803 15.999352,10.574405 16,10 16,8.8954305 15.10457,8 14,8 Z m 0,1 c 0.552285,0 1,0.4477153 1,1 0,0.552285 -0.447715,1 -1,1 -0.552285,0 -1,-0.447715 -1,-1 0,-0.5522847 0.447715,-1 1,-1 z m 0,3 c 0.552285,0 1,0.447715 1,1 0,0.552285 -0.447715,1 -1,1 -0.552285,0 -1,-0.447715 -1,-1 0,-0.552285 0.447715,-1 1,-1 z"/>
</svg>

<svg xmlns="http://www.w3.org/2000/svg" width="16" height="16" version="1.1">
 <defs>
  <style id="current-color-scheme" type="text/css">
   .ColorScheme-Text { color:#6e6e6e; } .ColorScheme-Highlight { color:#4285f4; }
  </style>
 </defs>
 <path style="fill:currentColor" class="ColorScheme-Text" d="M 8,5 A 3,3 0 0 0 5,8 3,3 0 0 0 8,11 3,3 0 0 0 11,8 3,3 0 0 0 8,5 Z M 8,7 A 1,1 0 0 1 9,8 1,1 0 0 1 8,9 1,1 0 0 1 7,8 1,1 0 0 1 8,7 Z M 8,1 C 5,1 5,4 5,4 V 8 H 7 V 4 C 7,4 7,3 8,3 9,3 9,4 9,4 H 11 C 11,4 11,1 8,1 Z M 14,8 A 2,2 0 0 0 12,10 2,2 0 0 0 14,12 2,2 0 0 0 16,10 2,2 0 0 0 14,8 Z M 14,9 A 1,1 0 0 1 15,10 1,1 0 0 1 14,11 1,1 0 0 1 13,10 1,1 0 0 1 14,9 Z M 14,11 A 2,2 0 0 0 12,13 2,2 0 0 0 14,15 2,2 0 0 0 16,13 2,2 0 0 0 14,11 Z M 14,12 A 1,1 0 0 1 15,13 1,1 0 0 1 14,14 1,1 0 0 1 13,13 1,1 0 0 1 14,12 Z M 1,1 V 3 H 2 V 11 H 4 V 1 Z"/>
</svg>
